X:1
T:Lorena
M:4/4
L:1/8
K:G
 D2| D3 DE D B3/2 A/2| G4 E2 z G| F3 G A3/2 G/2 B3/2 A/2| G6 z D| D3 DE D B3/2 A/2|\
 G4 E2 z E| D3 DD D E/2E/2 A| G4 z2 E3/2 E/2| E3 EE E G3/2 G/2| F6 z F|\
 B3 FF FA/2-G/2 F| E4 F-G/2-F/2 E2| D3 DE D B3/2 A/2| G4- G z E2| D3 DD DE F|\
 G6||
